X:1
T: Inman Line
C:
R:Reel
Q: 232
K:A
M:4/4
L:1/8
|:E2|EA2B cB cA|FB2c dc dB|ce dc Ad cB|Ac BA GB AF|
EA2B cB cA|FB2c dc dB|ca2a ae cA|Bd cB A2:|
|:e2|a2 e2 a2 e2|a2 ec' be fg|a2 e2 a2 ec|df ed cd ef|
a2 e2 a2 e2|a2 ec' be fg|a2 e2 a2 ec|Bd cB A2:|
